!!!!SEGMENT: pl-sa--552-a-ix-32--044_anonim--valc.krn
!!!cenid: 18xx:555
!!!COM: Anonim
!!!COM-rismid: pe30004985
!!!CDT:
!!!CNT:
!!!OTL: Valc
!!!PDT:
!!!AGN: Secular; Waltz
!!!SMS-siglum: PL-SA
!!!SMS-shelfmark: 552/A IX 32
!!!SMS-shelfwork: 044 W
!!!SMS-variant:
!!!SMS-altvar:
!!!NIFC-rismid: 1001069589
!!!URL-scan: http://bc.bdsandomierz.pl/dlibra/publication/1308/edition/1276/content
!!!ONB-nifc: Str. 24, s. 1-2
**kern	**kern
*part1	*part1
*staff2	*staff1
*I'keyb	*
*clefF4	*clefG2
*k[f#]	*k[f#]
*G:	*G:
*M3/8	*M3/8
=1	=1
!	!LO:TX:a:i:t=Valc
!	!LO:TX:a:t=P:problem:tytuł przed akoladą na wysokości górnej pięciolinii
!	!LO:TX:a:t=P:problem:metrum z kreską ułamkową
*tremolo	*
8D\L 8A 8d	16ddd\LL
.	16ccc#X\
8D\ 8A 8d	16eee\
.	16ddd\
8D\J 8A 8d	16cccn\
.	16aa\JJ
*Xtremolo	*
=2	=2
8G\L	8gg\L
8B\ 8d	16b\L
.	16dd\
8B\J 8d	16gg\
.	16bb\JJ
=3	=3
8D\L	8aa\L
8c\ 8f#	16dd\L
.	16ff#\
8c\J 8f#	16aa\
.	16ccc\JJ
=4	=4
8G\L	8bb\L
8B\ 8d	16b\L
.	16dd\
8B\J 8d	16gg\
.	16bb\JJ
=5	=5
*tremolo	*
8D\L 8A 8d	16ddd\LL
.	16ccc#X\
8D\ 8A 8d	16eee\
.	16ddd\
8D\J 8A 8d	16cccn\
.	16aa\JJ
*Xtremolo	*
=6	=6
8G\L	8gg\L
8B\ 8d	16b\L
.	16dd\
8B\J 8d	16gg\
.	16bb\JJ
=7	=7
8D\L	8aa\L
8c\ 8f#	16dd\L
.	16ff#\
8c\J 8f#	16aa\
.	16ddd\JJ
=8	=8
!LO:N:vis=4	!LO:N:vis=4
8G\ 8B	8gg\
8r	8r
=:|!|:	=:|!|:
*k[f#c#g#]	*k[f#c#g#]
8r	8a/
=9	=9
.	8qee/
8D\L	16dd\LL
.	16cc#\
8F#\ 8A	16dd\
.	16ee\
8F#\J 8A	16ff#\
.	16gg#\JJ
=10	=10
*rep	*
!LO:TX:a:t=P:problem:brak cyfr nad znakami repetycji	!
8D\L	16gg#X\LL
.	16aa\
8F#\ 8A	16bb\
.	16aa\
8F#\J 8A	16ff#\
.	16dd\JJ
*Xrep	*
=11	=11
.	8qccc#/
8D\L	4eee\
8G#\ 8B	.
8G#\J 8B	16bb\LL
.	16gg#\JJ
!!LO:LB:g=original
=12	=12
.	8qccc#/
8D\L	4ddd\
8F#\ 8A	.
8F#\J 8A	16aa\LL
.	16ff#\JJ
=13	=13
*rep	*
8D\L	16dd\LL
.	16cc#\
8F#\ 8A	16dd\
.	16ee\
8F#\J 8A	16ff#\
.	16gg#\JJ
*Xrep	*
=14	=14
*rep	*
8D\L	16gg#X\LL
.	16aa\
8F#\ 8A	16bb\
.	16aa\
8F#\J 8A	16ff#\
.	16dd\JJ
*Xrep	*
=15	=15
.	8qgg#X/
8AA\L	4aa\
8G#\ 8A	.
8G#\J 8A	16ggn\LL
.	16ee\JJ
=16	=16
4D\ 4F#	4dd\
=:|!|:	=:|!|:
*k[f#]	*k[f#]
8r	8a/
=17	=17
*^	*
8e/L	4.G\	8gg\L
8d/	.	8ff#\
8c/J	.	8ee\J
*v	*v	*
=18	=18
*tremolo	*
8G\L 8B 8d	16ee\LL
.	16dd\
8G\ 8B 8d	16cc#X\
.	16dd\
8G\J 8B 8d	16ee\ 16gg
.	16bb\JJ
=19	=19
8D\L 8d	16bb\LL
.	16aa\
8D\ 8d	16gg#X\
.	16aa\
8D\J 8d	16ff#\
.	16dd\JJ
=20	=20
8G\L 8B 8d	4bb\
8G\ 8B 8d	.
8G\J 8B 8d	8gg\
*Xtremolo	*
=21	=21
*^	*
.	.	8qaa/
8e/L	4.G\	8gg\L
8d/	.	8ff#\
8c/J	.	8ee\J
*v	*v	*
=22	=22
*tremolo	*
8G\L 8B 8d	16ee\LL
.	16dd\
8G\ 8B 8d	16cc#X\
.	16dd\
8G\J 8B 8d	16gg\
.	16bb\JJ
=23	=23
8D\L 8d	16bb\LL
.	16aa\
8D\ 8d	16gg#X\
.	16aa\
8D\J 8d	16ff#\
.	16dd\JJ
*Xtremolo	*
=24	=24
4G\ 4B	4gg\
8r	8r
==	==
*-	*-
!!!system-decoration: {(s1,s2)}
!!!RDF**kern: > = above
!!!RDF**kern: < = below
!!!EED: Mateusz Mrugas
!!!EST: 2020-12-13
!!!ENC:Anastazja Marusiak
!!!END:2020-06-18
